X:1
T:De Camtown Races
T:De Camptown Races - SATB
T:Stephen C. Foster
C:Stephen C. Foster
%%score [ 1 2 3 4 ]
L:1/8
Q:1/4=60
M:2/4
K:Eb
V:1 treble nm="Soprano"
V:2 treble nm="Alto"
V:3 treble-8 nm="Tenor"
V:4 bass nm="Bass"
V:1
 B/ | B B (G/ G/) (B/ B/) | (c/ c/) B G2 | G !>!F3 | G !>!F2 z/ B/ | B B G (B/ B/) | (c/ c/) B G2 | %7
w: 1.De|Camp- town la- * dies _|sing _ dis song,|Doo- dah,|doo- dah! De|Camp- town race track _|five _ miles long,|
w: 2.Dee|long tail'd fil- ly an' de|big _ black hoss,||* * Dey|fly de track an' dey|both _ cut 'cross,|
w: 3.Old|mu- ey cow _ come _|on- to de track,||* * De|bob- tail flung her _|o- ver his back,|
 F2 G F | E3 z/ B/ | B B G (B/ B/) | c B G2 | G !>!F3 | G !>!F3 | B (B/ B/) (G/ G/) (B/ B/) | %14
w: Oh, doo- dah-|day. *|See dem hos- ses _|round de bend,|Doo- dah,|doo- dah!|Guess dat _ race _ 'll _|
w: |* De|blind hoss stick in a|big mud hole,|||Can't touch _ bot- tom wid a|
w: |* Den|fly a- long like a|rail- road car,|||Run- nin' a race _ wid a|
 c B G2 | F2 G F | E3 z || E3/2 E/ G B | e4 | c3/2 c/ e c | B2 z B | B B G/ G/ B/ B/ | c B G2 | %23
w: nev- er end,|Oh, doo- dah-|day!|Gwine to run all|night,|Gwine to run all|day. De|hoss I fan- cy am de|bob- tail nag;|
w: ten foot pole,|||||||||
w: shoot- in' star,|||||||||
 F G/ A/ G/ F E/ | E3 |] %25
w: He'll walkt a- way from de|bay.|
w: ||
w: ||
V:2
 B/ | B B (G/ G/) (B/ B/) | (c/ c/) B G2 | E !>!E3 | D !>!D2 z/ B/ | B B G (B/ B/) | (c/ c/) B G2 | %7
w: 1.De|Camp- town la- * dies _|sing _ dis song,|Doo- dah,|doo- dah! De|Camp- town race track _|five _ miles long,|
w: 2.Dee|long tail'd fil- ly an' de|big _ black hoss,||* * Dey|fly de track an' dey|both _ cut 'cross,|
w: 3.Old|mu- ey cow _ come _|on- to de track,||* * De|bob- tail flung her _|o- ver his back,|
 E2 D D | E3 z/ B/ | B B G (B/ B/) | c B G2 | E !>!E3 | D !>!D3 | B (B/ B/) (G/ G/) (B/ B/) | %14
w: Oh, doo- dah-|day. *|See dem hos- ses _|round de bend,|Doo- dah,|doo- dah!|Guess dat _ race _ 'll _|
w: |* De|blind hoss stick in a|big mud hole,|||Can't touch _ bot- tom wid a|
w: |* Den|fly a- long like a|rail- road car,|||Run- nin' a race _ wid a|
 c B G2 | E2 D D | E3 z || E3/2 E/ E E | _D4 | E3/2 E/ C E | D2 z D | E E E/ E/ G/ G/ | G F =E2 | %23
w: nev- er end,|Oh, doo- dah-|day!|Gwine to run all|night,|Gwine to run all|day. De|hoss I fan- cy am de|bob- tail nag;|
w: ten foot pole,|||||||||
w: shoot- in' star,|||||||||
 _E E/ E/ D/ D E/ | E3 |] %25
w: He'll walkt a- way from de|bay.|
w: ||
w: ||
V:3
 B/ | B B (G/ G/) (B/ B/) | (c/ c/) B G2 | =A !>!A3 | _A !>!A2 z/ B/ | B B G (B/ B/) | %6
w: 1.De|Camp- town la- * dies _|sing _ dis song,|Doo- dah,|doo- dah! De|Camp- town race track _|
w: 2.Dee|long tail'd fil- ly an' de|big _ black hoss,||* * Dey|fly de track an' dey|
w: 3.Old|mu- ey cow _ come _|on- to de track,||* * De|bob- tail flung her _|
 (c/ c/) B G2 | =A2 _A A | G3 z/ B/ | B B G (B/ B/) | c B G2 | =A !>!A3 | _A !>!A3 | %13
w: five _ miles long,|Oh, doo- dah-|day. *|See dem hos- ses _|round de bend,|Doo- dah,|doo- dah!|
w: both _ cut 'cross,||* De|blind hoss stick in a|big mud hole,|||
w: o- ver his back,||* Den|fly a- long like a|rail- road car,|||
 B (B/ B/) (G/ G/) (B/ B/) | c B G2 | =A2 B _A | G3 z || E3/2 E/ G B | E3/2 E/ G B | A3/2 A/ A A | %20
w: Guess dat _ race _ 'll _|nev- er end,|Oh, doo- dah-|day!|Gwine to run all,|gwine to run all,|Gwine to run all|
w: Can't touch _ bot- tom wid a|ten foot pole,||||||
w: Run- nin' a race _ wid a|shoot- in' star,||||||
 F2 z F | G G B/ B/ e/ e/ | e _d c2 | _c c/ c/ B/ A A/ | G3 |] %25
w: day. De|hoss I fan- cy am de|bob- tail nag;|He'll walkt a- way from de|bay.|
w: |||||
w: |||||
V:4
 B,/ | B, B, (G,/ G,/) (B,/ B,/) | (C/ C/) B, G,2 | C, !>!C,3 | B,, !>!B,,2 z/ B,/ | %5
w: 1.De|Camp- town la- * dies _|sing _ dis song,|Doo- dah,|doo- dah! De|
w: 2.Dee|long tail'd fil- ly an' de|big _ black hoss,||* * Dey|
w: 3.Old|mu- ey cow _ come _|on- to de track,||* * De|
 B, B, G, (B,/ B,/) | (C/ C/) B, G,2 | C,2 B,, B,, | E,3 z/ B,/ | B, B, G, (B,/ B,/) | C B, G,2 | %11
w: Camp- town race track _|five _ miles long,|Oh, doo- dah-|day. *|See dem hos- ses _|round de bend,|
w: fly de track an' dey|both _ cut 'cross,||* De|blind hoss stick in a|big mud hole,|
w: bob- tail flung her _|o- ver his back,||* Den|fly a- long like a|rail- road car,|
 C, !>!C,3 | B,, !>!B,,3 | B, (B,/ B,/) (G,/ G,/) (B,/ B,/) | C B, G,2 | C,2 B,, B,, | E,3 z || %17
w: Doo- dah,|doo- dah!|Guess dat _ race _ 'll _|nev- er end,|Oh, doo- dah-|day!|
w: ||Can't touch _ bot- tom wid a|ten foot pole,|||
w: ||Run- nin' a race _ wid a|shoot- in' star,|||
 E,3/2 E,/ E, E, | E,4 | A,,3/2 A,,/ A,, A,, | B,,2 z B,, | E, E, E,/ E,/ E,/ E,/ | E, G, C,2 | %23
w: Gwine to run all|night,|Gwine to run all|day. De|hoss I fan- cy am de|bob- tail nag;|
w: ||||||
w: ||||||
 F, F,/ F,/ B,,/ B,, B,,/ | [E,,E,]3 |] %25
w: He'll walkt a- way from de|bay.|
w: ||
w: ||

